!!!!SEGMENT: pl-wumfc--r245--001-001_paderewski-ignacy-jan--stara-suita-op-3-preludio.krn
!!!cenid: 18xx:3137
!!!COM: Paderewski, Ignacy Jan
!!!COM-rismid: pe30029943
!!!CDT: 1860/11/18-1941/06/29
!!!CNT: Polish
!!!OPR: Stara suita op. 3
!!!OTL: Preludio
!!!OMV: 001
!!!PDT:
!!!AGN:
!!!SMS-siglum: PL-Wumfc
!!!SMS-shelfmark: R245
!!!SMS-shelfwork: 001-001 M
!!!SMS-variant:
!!!SMS-altvar:
!!!NIFC-rismid: 1001155838
!!!URL-scan: http://repozytorium.nifc.pl/skany/pl-wumfc--r245
!!!ONB-nifc: UWAGA: części Suity: 1.Preludio, 2. Intermezzo, 3. Aria, 4. Fuga
!!!key: d
!!!OMD: Poco moderato
**kern	**kern	**dynam
*part1	*part1	*part1
*staff2	*staff1	*
*I"Piano	*I"Piano	*
*Ipiano	*Ipiano	*
*ICklav	*ICklav	*
*IGsolo	*IGsolo	*
*clefF4	*clefG2	*
*k[b-]	*k[b-]	*
*d:	*d:	*
*M4/4	*M4/4	*
*met(c)	*met(c)	*
=1	=1	=1
1DD;	1r;	.
=2	=2	=2
*^	*	*^
!LO:TX:a:rj:t=grave	!	!	!	!
4r	[1DD	4r	.	.
4A>\	.	(4A/	.	.
4G/	.	4B-/	.	.
!	!	!	!	!LO:HP:a
4E/	.	4c#X/	<	<
=3	=3	=3	=3	=3
4F/	1DD_	4d/	.	.
4A/	.	4e/	.	.
4d/	.	4f/	[	[
8e/L	.	4g/	.	.
8d/J	.	.	.	.
*	*	*	*v	*v
=4	=4	=4	=4
*	*	*^	*
*	*2\right	*	*	*
4c#X/	2DD\]	2a,/)	2ryy	>
4A/	.	.	.	.
2ryy	[<2DD\	(4a/	4f\	] <
.	.	4g/	4e\	[[
*v	*v	*	*	*
!!LO:LB:g=original
=5	=5	=5	=5
1DD]	4f/	4d\	>
.	4a/	4c\	.
.	4d/	4B-\	.
.	4f/	4A\	]
=6	=6	=6	=6
*	*	*2\right	*
2EE\	4f/	2G#X\	.
.	4e/)	.	.
[<2AAA\	(4g/	4e\	sf
.	4f/	4d\	.
=7	=7	=7	=7
1AAA]	(4e/)	4c\	.
.	4g/	4B-\	.
.	4c#X/	4A\	.
.	4e/	[4G\	.
=8	=8	=8	=8
*	*	*	*^
2.DD\	([2A/)	(<4G\]	.	.
.	.	8F</L	<	.
!	!	!	!	!LO:HP:b=2:t=cres
.	.	8E</J)	.	<
.	4A/]	[2F</	.	.
4GG\	4Bn/	.	[	.
*	*	*	*v	*v
!!LO:LB:g=original
=9	=9	=9	=9
1CC	(2c/	8F</L]	.
.	.	&((<8E<'</	.
.	.	8D<'</	.
.	.	8F<'</J)	.
.	4c/)	4E</	.
.	4g/)	4B-</	.
=10	=10	=10	=10
[2FF\	(>[2c/	&((<4B-</&)	.
!	!	!	!LO:HP:b=2:t=cres
.	.	8A</L	<
.	.	8G</J)	.
4FF\]	4c/]	[2A</	.
4BBn\	4d/	.	.
=11	=11	=11	=11
1EE	(>2.e/	8A</L]	.
.	.	8G#X</	.
.	.	8F#X</	.
.	.	8A</J	.
.	.	4G#</	.
.	4bn/)	4d</	.
=12	=12	=12	=12
1AA	4e,/)	4c#X</&)	.
!	!	!	!LO:HP:b=2
.	(>4a/	&(4A</	<
!LO:TX:b:t=marcato	!	!	!
.	4g/	4B-</	.
.	8f/L	4c#X</	.
.	8e/J	.	[[
!!LO:LB:g=original
=13	=13	=13	=13
4D\	4f/	4d</	.
4C\	4a/	4e</	.
!	!LO:TX:b:t=il tema	!	!
2BB-\	2dd\	4f</	.
.	.	4g</&)	.
=14	=14	=14	=14
2FF/	2cc/	4a\	.
!	!	!	!LO:DY:rj
.	.	4A,\)	f
4F\	(4cc/	(4a\	.
4E\	4cc#X/	4g\	.
=15	=15	=15	=15
4D\	4dd/	4f\	>
4C\	4ee/	4a\	.
2BBn\	4ff/	4d\	.
.	8ee/L	[4f\)	]
.	8dd/J	.	.
=16	=16	=16	=16
2E\	4dd/	4f\]	.
.	8cc#X/L	4e\	.
.	8bn/J	.	.
2AA\	(4cc#/)	4g\	<
.	4dd/	4f\	[[
!!LO:LB:g=original
=17	=17	=17	=17
1AA	4ee/	4e\	.
.	[4b-/	4g\	>
.	8b-/L]	4c#X\	.
.	8a/J	.	.
.	4g/)	4e\	]
=18	=18	=18	=18
2D\	(>4g/	2A</	pp
.	8f/L	.	.
.	8e/J	.	<
2GG\	[>2f/	4A</	.
.	.	4Bn</	[
=19	=19	=19	=19
*	*	*	*^
[>2C\	8f/L]	1c<	.	.
.	8e/	.	.	.
.	8d/	.	.	.
.	8f/J	.	.	>
(>8C\L]	4e/)	.	<	.
8C\	.	.	.	.
8D\	[4b-/	.	.	.
8E\J	.	.	[[	]
*	*	*	*v	*v
=20	=20	=20	=20
2.F\)	(4b-/]	2c\	<
.	8a/L	.	.
.	8g/J	.	.
.	[2a/	4c\	[
(4BBn\	.	4d\	.
!!LO:LB:g=original
=21	=21	=21	=21
[2E\	8a/L]	1e	.
.	8g#X/	.	.
.	8f#X/	.	.
.	8a/J	.	.
!	!	!	!LO:HP:b=2
8E\L]	4g#/	.	<
8E\	.	.	.
8F#X\	4dd/	.	.
8G#X\J)	.	.	[
=22	=22	=22	=22
1A	(4cc#X/)	4e\	<
.	4dd/	4f\	.
.	4ee/	2g\	.
.	[4a/)	.	[
=23	=23	=23	=23
2AA\	(4a/]	4f\	>
.	8bn/L	4e\	.
.	8cc#X/J	.	.
!LO:TX:a:t=rit.	!	!	!
2D\	2dd,/)	4f\	.
.	.	4d\	]
=24	=24	=24	=24
!	!LO:TX:a:i:t=piu lento	!	!
(2B-\	(8a/L	2d\	.
.	8g/	.	.
.	8f/	.	pp
.	8g/J	.	.
2F\)	2a/)	4c\	.
.	.	4A\	.
!!LO:PB:g=original
=25	=25	=25	=25
2BB-\	(>2d/	(8A</L	.
.	.	8G</	.
.	.	8F</	.
.	.	8G</J	p
2FF\	2c/)	4A</	.
.	.	4C</)	.
=26	=26	=26	=26
8AA\L	(>2c/	2F</	.
8GG\	.	.	.
!	!	!LO:TX:b:t=largo	!
8FF\	.	.	.
8GG\J	.	.	f
!	!	!	!LO:DY:a:rj
4AA\	2c#X/	2E</	f
4AAA\	.	.	.
=27	=27	=27	=27
*^	*	*	*
4ryy	4DD\	4d/)	4F</	.
!LO:TX:b:t=marc. il thema	!	!	!	!
4r	(4AA\	4r	2.ryy	.
4r	4BB-\	4r	.	ff
4G/	4C#X\	(>[4A/	.	.
*	*	*v	*v	*
=28	=28	=28	=28
4F/	4D\	4A/]	<
4G/	4E\	4c#X/	.
4A/	4F\	4d/	.
4B-/	4G\	4e/	[[
!!LO:LB:g=original
=29	=29	=29	=29
1A	4A\	2.c#X/	.
.	4AA\)	.	.
.	(4A\	.	.
.	4G\	(>4e/)	.
=30	=30	=30	=30
*	*	*^	*
2.A/	4F\	4a/	2.ryy	sf
.	4E\	4g/	.	.
!	!	!	!	!LO:HP:t=dim
.	.	.	.	>
.	4D\)	4f/	.	>
4ryy	4GG\	8g/L	4B-</	.
.	.	8d/J	.	]]
*v	*v	*	*	*
=31	=31	=31	=31
4C\	4e/	4G</	>
4FF\	8f/L	4A</	.
.	8c/J)	.	]
2AA\	(>2c#X/	&(4F</	.
!	!	!	!LO:HP:t=poco cres.
.	.	4E</	<
=32	=32	=32	=32
4BB-\	4d/	[2D</	.
!	!	!	!LO:DY:b=2
4AA\	4c/	.	pp
4GG\	4B-/	4D</]	>
4CC\	8c/L	4E</	.
.	8G/J	.	]
!!LO:LB:g=original
=33	=33	=33	=33
4FF\	4A/	4C</	>
4BBB-\	8B-/L	4D</	.
.	8F/J)	.	]
2EE-X\	(2G/	4E-X</	.
.	.	4D</	.
=34	=34	=34	=34
1AAA	4A/)	4C#X</&)	.
!	!	!	!LO:HP:b=2
.	(>4A/	(4G</	<
.	4Bn/	4F</	.
.	4c#X/	4E</	.
=35	=35	=35	=35
2AA\	4d/	4F</	[
.	4e/	4G</	.
2AAA\	4f/	4A</	.
.	8e/L	4G</)	f
.	8f/J	.	.
=36	=36	=36	=36
1DD	4d/)	4F</	.
!	!	!	!LO:HP:t=piu cres.
.	(>4d/	(<4F#X</	<
.	4e/	4G</	.
.	4f#X/	4A</)	.
!!LO:LB:g=original
=37	=37	=37	=37
*	*	*	*^
!	!	!	!LO:HP:t=poco cres	!LO:HP:a
2D\	4g/)	4B-</	<	<
.	4a/	4c</	.	.
!	!	!	!LO:DY:b=2:rj	!
2DD\	4b-/	4d</	ff	.
.	8a/L	4c</	.	.
.	8b-/J	.	.	[
*	*	*	*v	*v
=38	=38	=38	=38
2.GG\	(>4g/	4B-</	.
.	4a/	4d</	.
.	4b-/	2g\	.
4r	4dd/	.	.
=39	=39	=39	=39
4r	2gg/)	4r	.
(4c#X\	.	(>4b-\	ff
4d\	4ff/	4a\	.
4A\	4cc#X/	4g\	.
=40	=40	=40	=40
2B-\	2dd/	4f\	>
.	.	4g\	.
2F\	2cc/	4a\	.
.	.	4A\	]
!!LO:LB:g=original
=41	=41	=41	=41
4r	2cc/	4r	.
4F#X\	.	4e-X\	>
4G\	4b-/	4d\	.
4D\	4f#X/	4c\	.
=42	=42	=42	=42
2GG\	4g/	2B-\	.
.	2b-/	.	.
2AA\)	.	2G\	]
.	4c#X/)	.	.
=43	=43	=43	=43
*^	*	*	*
4ryy	[1DD	8d/L	4F</	.
.	.	8A/J	.	.
(4AA/	.	4a^>/	2.ryy	.
!	!	!LO:TX:a:i:t=non legato	!	!
4BB-/	.	8g/L	.	.
.	.	8f/	.	.
!	!	!	!	!LO:DY:a
4C#X/	.	8e/	.	<
.	.	8f/J	.	.
*	*	*v	*v	*
=44	=44	=44	=44
4D/	1DD_	8d/L	.
.	.	8e/	.
4E/	.	8c#X/	[
.	.	8A/J	.
4F/	.	4d/	.
4G/	.	8cn/L	.
.	.	8B-/J	.
!!LO:LB:g=original
=45	=45	=45	=45
!LO:TX:t=P:problem=brak zakończenia łuku	!	!	!
4A/)	2DD\]	8A/L	.
.	.	8B-/	.
4AA/	.	8Bn/	.
.	.	8c#X/J	.
8F/L	[2DD\	4d/	.
8E/	.	.	.
8F/	.	(>4A/	.
8D/J	.	.	.
=46	=46	=46	=46
!	!	!	!LO:HP:a
8G/L	1DD_	4B-/	<
8F/	.	.	.
8E/	.	4c#X/	.
8A/J	.	.	.
8F/L	.	4d/	.
8D/	.	.	.
8C#X/	.	4e/	[
8AA/J	.	.	.
=47	=47	=47	=47
8D/L	1DD]	4f/	.
8Cn/	.	.	.
8BB-/	.	4g/	f
8E/J	.	.	.
8C#X/L	.	4a/	.
8BBn/	.	.	.
8C#/	.	4A/)	.
8AA/J	.	.	.
*v	*v	*	*
=48	=48	=48
*	*^	*
[1DD	(4dd/	8f#X\L	.
.	.	8d\	p
.	4cc/	8e\	.
.	.	8f#\J	.
.	8b-/L	4g\	.
.	8cc/J	.	.
.	4dd/	8f#\L	.
.	.	8d\J	.
!!LO:PB:g=original
=49	=49	=49	=49
1DD_	4b-/	8g\L	.
.	.	8B-\	.
.	4a/	8c\	.
.	.	8d\J	.
.	8g/L	[4e\	.
.	8a/J	.	.
.	4b-/)	8e\L]	.
.	.	8d\J	.
=50	=50	=50	=50
!	!	!LO:TX:b:t=dimi-nu-endo:problem=dynamics with extention lines	!LO:HP:t=dimi-nu-endo
1DD_	(4a/	8c#X\L	>
.	.	8A\	.
.	8g/L	8Bn\	.
.	8e/J	8c#X\J	.
.	8f/L	8d\L	.
.	8g/	8e\	.
.	8f/	8d\	.
.	8e/J	8A\J	.
=51	=51	=51	=51
1DD_	8d/L	4A</	.
.	8A/	.	.
.	8c/	[<4G</	.
.	8B-/J	.	]
.	4A/	8G</L]	.
.	.	8F</J	.
.	8Bn/L	4E</	.
.	8c#X/J)	.	.
=52	=52	=52	=52
4DD\]	4d/	8F</L	.
.	.	8E</J	.
!	!LO:TX:a:i:t=poco rallen-tando	!	!
2AA\	(>4A/	4F</	pp
.	4B-/	8G</L	.
.	.	8F</	.
4AA\	4c#X/	8E</	.
.	.	8A</J	.
!!LO:LB:g=original
=53	=53	=53	=53
4DD\	4d/	8F</L	.
.	.	8E</J	.
4AA\	2A/	4F</	>
4BB-\	.	8G</L	.
.	.	8F</	.
4C#X\	4A/)	8E</	.
.	.	8F</J	]
=54	=54	=54	=54
4D\	4r	8D</L	.
.	.	8E</J	.
2AA\	(>4A/	4F</	<
.	4B-/	8G</L	.
.	.	8F</	.
4AA\	4c#X/	8E</	.
.	.	8A</J	[[
=55	=55	=55	=55
4DD\	4d/)	8F</L	>
.	.	8E</J	.
4AA\	2A/	4F</	.
4BB-\	.	8G</L	]
.	.	8F</	.
4C#X\	4A/	8E</	.
.	.	8F</J	.
=56	=56	=56	=56
!	!LO:N:vis=2	!LO:N:vis=8	!
(4D\	2.r	4r<	.
4F\	.	(4A</	.
4G\	.	4B-</	.
4G 4E\	4r	4c#X</	.
!!LO:LB:g=original
=57	=57	=57	=57
4D\	2.d/	&(4F</	<
4C\	.	4F#X</	.
4BB-\	.	4G</	.
4GG\	4e/	4B-</	[[
=58	=58	=58	=58
*	*ped	*	*
1DD	[>1f#X)	[1A</&)	.
=59	=59	=59	=59
1DD	1f#]	1A</]	.
=60	=60	=60	=60
*8ba	*	*	*
1DDD	1r	1r<	.
*X8ba	*	*Xped	*
*	*v	*v	*
==	==	==
*-	*-	*-
!!!system-decoration: {(s1,s2)}
!!!RDF**kern: > = above
!!!RDF**kern: < = below
!!!AIN: 1 piano
!!!ENC: Marta Opryszak
!!!END: 2021-11-17
!!!ENC: Marta Lawrence
!!!END: 2021-12-29
